X:211
T:Siege of S Malo - Peake
%%VWML:SBG-1-2-455-0
F:http://www.vwml.org/record/SBG/1/2/455
Z:Original Sibelius transcriptions by M. & S. Graebe
M:4/4
I:linebreak $
K:D
V:1 treble nm="P1"
V:1
 D A F A | d e/d/ c/B/ A | B B/A/ A B | c d A2 :| G/F/ G/A/ B/c/ d | G B c/B/ A |$ B A G E | %7
 G A F2 | G/F/ G/A/ B/c/ d | e f/e/ d/c/ A | B/c/ d A F | G/F/ E D2 | %12

